addons/inventory-system/icons/craft-station-type.svg

<?xml version="1.0" encoding="UTF-8" standalone="no"?>
<!-- Created with Inkscape (http://www.inkscape.org/) -->

<svg
   width="16"
   height="16"
   viewBox="0 0 4.2333333 4.2333332"
   version="1.1"
   id="svg5"
   inkscape:version="1.2 (dc2aedaf03, 2022-05-15)"
   sodipodi:docname="craft-station-type.svg"
   inkscape:export-filename="icon.png"
   inkscape:export-xdpi="3072"
   inkscape:export-ydpi="3072"
   xmlns:inkscape="http://www.inkscape.org/namespaces/inkscape"
   xmlns:sodipodi="http://sodipodi.sourceforge.net/DTD/sodipodi-0.dtd"
   xmlns="http://www.w3.org/2000/svg"
   xmlns:svg="http://www.w3.org/2000/svg">
  <sodipodi:namedview
     id="namedview7"
     pagecolor="#505050"
     bordercolor="#eeeeee"
     borderopacity="1"
     inkscape:showpageshadow="0"
     inkscape:pageopacity="0"
     inkscape:pagecheckerboard="false"
     inkscape:deskcolor="#505050"
     inkscape:document-units="px"
     showgrid="true"
     showguides="true"
     inkscape:zoom="23.204938"
     inkscape:cx="9.6315707"
     inkscape:cy="11.570813"
     inkscape:window-width="2560"
     inkscape:window-height="1001"
     inkscape:window-x="-9"
     inkscape:window-y="-9"
     inkscape:window-maximized="1"
     inkscape:current-layer="layer1"
     inkscape:lockguides="true">
    <inkscape:grid
       type="xygrid"
       id="grid9001" />
  </sodipodi:namedview>
  <defs
     id="defs2" />
  <g
     inkscape:label="Camada 1"
     inkscape:groupmode="layer"
     id="layer1">
    <rect
       style="fill:#ffffff;stroke:#ffffff;stroke-width:2;stroke-dasharray:none;stroke-opacity:1"
       id="rect1793"
       height="3.1241555"
       x="6.2711148"
       y="7.7305741"
       rx="2"
       ry="2"
       width="0" />
    <rect
       style="fill:none;stroke:#ffffff;stroke-width:0.529167;stroke-linecap:round;stroke-linejoin:round;stroke-dasharray:none;stroke-opacity:1"
       id="rect6022"
       x="1.3544916"
       y="1.4189913" />
    <path
       id="path18485"
       style="fill:#ffe345;stroke:none;stroke-width:0.341077;stroke-linecap:round"
       d="M 1.7710883,3.5718748 2.4745869,4.2333332 H 4.233333 l 2e-7,-0.3307291 V 3.2411459 2.9104166 H 2.474587 Z m 1.4069973,0 c -4e-7,-0.183223 0.1568804,-0.3307289 0.3517494,-0.3307289 0.194869,6e-7 0.3517492,0.1475057 0.3517489,0.3307293 6e-7,0.1832234 -0.1568805,0.3307293 -0.3517494,0.3307291 -0.1948685,5e-7 -0.3517492,-0.1475056 -0.3517489,-0.3307295 z" />
    <path
       id="rect569"
       style="fill:#ffe345;fill-opacity:1;stroke:none;stroke-width:1.52118;stroke-linecap:round;stroke-linejoin:miter;stroke-dasharray:none;stroke-opacity:1"
       inkscape:transform-center-x="0.90483477"
       inkscape:transform-center-y="0.23675036"
       d="M 1.3229166 0.26458333 L 1.3229166 0.52916666 L 0.52916666 0.52916666 L 0.26458333 0.52916666 L 0.26458333 1.0583333 L 0.52916666 1.0583333 L 1.3229166 1.0583333 L 1.3229166 1.3229166 L 1.7197916 1.3229166 L 2.1166666 1.3229166 L 2.1166666 0.52916666 L 1.7197916 0.26458333 L 1.3229166 0.26458333 z M 0.52916666 1.5875 C 0.38258794 1.5875 0.26458333 1.7055045 0.26458333 1.8520833 C 0.26458333 1.9986621 0.38258794 2.1166666 0.52916666 2.1166666 L 0.97151691 2.1166666 L 0.29817301 3.5873779 C 0.23014395 3.7359897 0.30009296 3.8983231 0.4547526 3.9511799 C 0.60941221 4.004037 0.78876618 3.9266757 0.85679523 3.7780639 L 1.0118245 3.4395833 L 1.4526245 3.4395833 L 1.9709391 2.9104166 L 1.2536702 2.9104166 L 1.5580444 2.2458577 C 1.5776653 2.2029951 1.5859148 2.1588397 1.5838826 2.1166666 L 2.6422159 2.1166666 C 2.6400345 2.1595496 2.6483632 2.2042475 2.6685709 2.2479248 L 2.852539 2.6458333 L 3.5052123 2.6458333 L 3.260266 2.1166666 L 3.7041666 2.1166666 C 3.8507452 2.1166666 3.9687499 1.9986621 3.9687499 1.8520833 C 3.9687499 1.7055045 3.8507452 1.5875 3.7041666 1.5875 L 0.52916666 1.5875 z " />
  </g>
</svg>

<?xml version="1.0" encoding="UTF-8"?>
<!-- Created with Inkscape (http://www.inkscape.org/) -->
<svg width="16" height="16" version="1.1" viewBox="0 0 4.2333 4.2333" xmlns="http://www.w3.org/2000/svg">
 <g fill="#35d4f4">
  <rect x="6.2711" y="7.7306" width="0" height="3.1242" rx="2" ry="2" stroke="#fff" stroke-width="2"/>
  <rect x="1.3545" y="1.419" stroke="#fff" stroke-linecap="round" stroke-linejoin="round" stroke-width=".52917"/>
  <path d="m1.7711 3.5719 0.7035 0.66146h1.7587l2e-7 -0.33073v-0.99219h-1.7587zm1.407 0c-4e-7 -0.18322 0.15688-0.33073 0.35175-0.33073 0.19487 6e-7 0.35175 0.14751 0.35175 0.33073 6e-7 0.18322-0.15688 0.33073-0.35175 0.33073-0.19487 5e-7 -0.35175-0.14751-0.35175-0.33073z"/>
  <path d="m1.3229 0.26458v0.26458h-0.79375-0.26458v0.52917h0.26458 0.79375v0.26458h0.39688 0.39688v-0.79375l-0.39688-0.26458h-0.39688zm-0.79375 1.3229c-0.14658 0-0.26458 0.118-0.26458 0.26458s0.118 0.26458 0.26458 0.26458h0.44235l-0.67334 1.4707c-0.068029 0.14861 0.00192 0.31095 0.15658 0.3638 0.15466 0.052857 0.33401-0.024504 0.40204-0.17312l0.15503-0.33848h0.4408l0.51831-0.52917h-0.71727l0.30437-0.66456c0.019621-0.042863 0.02787-0.087018 0.025838-0.12919h1.0583c-0.0021814 0.042883 0.0061473 0.087581 0.026355 0.13126l0.18397 0.39791h0.65267l-0.24495-0.52917h0.4439c0.14658 0 0.26458-0.118 0.26458-0.26458s-0.118-0.26458-0.26458-0.26458h-3.175z"/>
 </g>
</svg>
